azure-patterns/svg-cache.svg

<svg xmlns="http://www.w3.org/2000/svg" viewBox="0 0 197 165">
                                
                            
    <g stroke="none" stroke-width="1" fill="none" fill-rule="evenodd">
            <path d="M86.7623,144.5056 L2.4793,109.4736 C-0.7587,108.1266 -0.8447,103.5706 2.3403,102.1046 L97.5093,58.2886 L193.9463,102.1836 C196.6813,103.4286 196.6493,107.3246 193.8943,108.5256 L110.7313,144.3016 C103.1023,147.6256 94.4483,147.6996 86.7623,144.5056" fill="#BC0F0F"></path>
            <path d="M196.0162,124.7908 C196.1332,126.1768 195.4402,127.6248 193.9442,128.2758 L115.3062,161.0078 C105.1212,165.4448 93.5702,165.5438 83.3122,161.2798 L2.5202,127.6398 C1.0792,127.0408 0.2632,125.8088 0.0802,124.4938 L0.0406860202,105.1068 C0.0002,106.6608 0.8322,108.2338 2.5202,108.9358 L87.3392,144.2488 C95.0242,147.4428 103.6782,147.3698 111.3072,144.0448 L193.9442,108.0348 C195.2302,107.4748 195.9222,106.3258 196.0172,105.1348 L196.0162,124.7908 Z" fill="#951515"></path>
            <path d="M86.7623,111.4529 L2.4793,76.4199 C-0.7587,75.0739 -0.8447,70.5169 2.3403,69.0509 L97.5093,25.2359 L193.9463,69.1309 C196.6813,70.3759 196.6493,74.2709 193.8943,75.4729 L110.7313,111.2489 C103.1023,114.5729 94.4483,114.6459 86.7623,111.4529" fill="#BC0F0F"></path>
            <path d="M196.027,91.489 C196.144,92.875 195.452,94.323 193.955,94.975 L114.729,127.954 C104.546,132.392 92.993,132.49 82.735,128.226 L2.479,94.868 C1.039,94.27 0.222,93.037 0.04,91.722 L0.002,72.336 C-0.04,73.889 0.792,75.463 2.479,76.164 L86.762,111.196 C94.448,114.39 103.102,114.317 110.731,110.992 L193.955,74.733 C195.242,74.173 195.867,73.159 195.962,71.968 L196.027,91.489 Z" fill="#951515"></path>
            <path d="M86.7623,78.3992 L2.4793,43.3672 C-0.7587,42.0212 -0.8447,37.4642 2.3403,35.9982 L85.8233,2.2832 C93.3233,-0.7458 101.7013,-0.7618 109.2133,2.2382 L193.9463,36.0772 C196.6813,37.3222 196.6493,41.2182 193.8943,42.4202 L110.7313,78.1952 C103.1023,81.5202 94.4483,81.5932 86.7623,78.3992" fill="#BC0F0F"></path>
            <path d="M195.9596,58.5545 C196.0776,59.9405 195.3846,61.3885 193.8886,62.0395 L114.7296,94.9015 C104.5456,99.3385 92.9926,99.4375 82.7346,95.1735 L2.4796,61.8155 C1.0386,61.2165 0.2226,59.9845 0.0396,58.6695 L0.0016,39.2835 C-0.0404,40.8365 0.7916,42.4095 2.4796,43.1115 L86.7626,78.1435 C94.4476,81.3375 103.1026,81.2635 110.7306,77.9395 L193.8886,41.7985 C195.1746,41.2385 195.8666,40.0895 195.9616,38.8985 L195.9596,58.5545 Z" fill="#951515"></path>
            <path d="M80.4117,38.4646 C80.4117,44.3186 69.8817,49.0646 56.8907,49.0646 C43.8997,49.0646 33.3687,44.3186 33.3687,38.4646 C33.3687,32.6106 43.8997,27.8646 56.8907,27.8646 C69.8817,27.8646 80.4117,32.6106 80.4117,38.4646" fill="#FFFFFF"></path>
            <polygon fill="#FFFFFF" points="66.6344 55.8543 67.0404 56.0423 101.7374 72.1253 114.4204 50.3453"></polygon>
            <polygon fill="#951515" points="140.1705 51.242 140.1705 25.877 168.2265 38.559"></polygon>
            <polygon fill="#771819" points="140.1705 51.242 112.8835 38.559 140.1705 25.877"></polygon>
            <path d="M88.7975,23.5701 L92.5135,32.2821 L102.5055,24.5951 L120.9535,25.7481 L108.3345,18.9261 L116.5985,11.2391 L98.7265,14.8901 L84.6025,8.9331 L86.5245,17.5811 C86.5245,17.5811 69.7085,21.9051 69.9965,21.9051 C70.2855,21.9051 88.7975,23.5701 88.7975,23.5701" fill="#FFFFFF"></path>
    </g>
</svg>

<svg xmlns="http://www.w3.org/2000/svg" viewBox="0 0 197 165"><g fill="none" fill-rule="evenodd"><path d="M86.762 144.506L2.48 109.474c-3.238-1.347-3.324-5.903-.139-7.37L97.51 58.29l96.436 43.895c2.735 1.245 2.703 5.14-.052 6.342l-83.163 35.776a30.604 30.604 0 0 1-23.969.204" fill="#BC0F0F"/><path d="M196.016 124.79c.117 1.387-.576 2.835-2.072 3.486l-78.638 32.732a40.847 40.847 0 0 1-31.994.272L2.52 127.64a3.951 3.951 0 0 1-2.44-3.146l-.04-19.387c-.04 1.554.792 3.127 2.48 3.829l84.82 35.313a30.597 30.597 0 0 0 23.967-.204l82.637-36.01a3.417 3.417 0 0 0 2.073-2.9v19.656z" fill="#951515"/><path d="M86.762 111.453L2.48 76.42c-3.238-1.346-3.324-5.903-.139-7.37l95.17-43.814 96.436 43.895c2.735 1.245 2.703 5.14-.052 6.342l-83.163 35.776a30.608 30.608 0 0 1-23.969.204" fill="#BC0F0F"/><path d="M196.027 91.489c.117 1.386-.575 2.834-2.072 3.486l-79.226 32.979a40.843 40.843 0 0 1-31.994.272L2.479 94.868A3.949 3.949 0 0 1 .04 91.722L.002 72.336c-.042 1.553.79 3.127 2.477 3.828l84.283 35.032a30.6 30.6 0 0 0 23.969-.204l83.224-36.259c1.287-.56 1.912-1.574 2.007-2.765l.065 19.521z" fill="#951515"/><path d="M86.762 78.4L2.48 43.366c-3.238-1.346-3.324-5.903-.139-7.369L85.823 2.283a31.378 31.378 0 0 1 23.39-.045l84.733 33.84c2.735 1.244 2.703 5.14-.052 6.342l-83.163 35.775a30.6 30.6 0 0 1-23.969.204" fill="#BC0F0F"/><path d="M195.96 58.554c.118 1.386-.575 2.834-2.071 3.485l-79.16 32.862a40.85 40.85 0 0 1-31.994.273L2.48 61.815A3.951 3.951 0 0 1 .04 58.67L.002 39.282c-.042 1.553.79 3.127 2.478 3.828l84.283 35.033a30.602 30.602 0 0 0 23.968-.205l83.158-36.14a3.417 3.417 0 0 0 2.073-2.9l-.002 19.655z" fill="#951515"/><path d="M80.412 38.465c0 5.854-10.53 10.6-23.521 10.6-12.991 0-23.522-4.746-23.522-10.6 0-5.854 10.53-10.6 23.522-10.6 12.99 0 23.52 4.746 23.52 10.6M66.634 55.854l.406.188 34.697 16.083 12.683-21.78z" fill="#FFF"/><path fill="#951515" d="M140.17 51.242V25.877l28.056 12.682z"/><path fill="#771819" d="M140.17 51.242l-27.286-12.683 27.287-12.682z"/><path d="M88.797 23.57l3.716 8.712 9.992-7.687 18.449 1.153-12.62-6.822 8.264-7.687-17.871 3.651-14.124-5.957 1.922 8.648s-16.817 4.324-16.529 4.324c.29 0 18.802 1.665 18.802 1.665" fill="#FFF"/></g></svg>
